azure-patterns/svg-resource-graph.svg

<svg xmlns="http://www.w3.org/2000/svg" viewBox="0 0 49 48">
                                
                            
<path d="M8.44992 7.63592L5.34912 10.1627L27.35 37.1614L30.4508 34.6346L8.44992 7.63592Z" fill="#A0A1A2"></path>
<path d="M39.8999 6.90002H6.8999V10.9H39.8999V6.90002Z" fill="#A0A1A2"></path>
<path d="M6.9 15.8C10.7108 15.8 13.8 12.7108 13.8 8.9C13.8 5.08924 10.7108 2 6.9 2C3.08924 2 0 5.08924 0 8.9C0 12.7108 3.08924 15.8 6.9 15.8Z" fill="#804998"></path>
<path opacity="0.2" d="M6.9 15.8C10.7108 15.8 13.8 12.7108 13.8 8.9C13.8 5.08924 10.7108 2 6.9 2C3.08924 2 0 5.08924 0 8.9C0 12.7108 3.08924 15.8 6.9 15.8Z" fill="white"></path>
<path d="M39.9 17.8C44.8153 17.8 48.8 13.8153 48.8 8.9C48.8 3.98467 44.8153 0 39.9 0C34.9847 0 31 3.98467 31 8.9C31 13.8153 34.9847 17.8 39.9 17.8Z" fill="#804998"></path>
<path opacity="0.1" d="M39.9 17.8C44.8153 17.8 48.8 13.8153 48.8 8.9C48.8 3.98467 44.8153 0 39.9 0C34.9847 0 31 3.98467 31 8.9C31 13.8153 34.9847 17.8 39.9 17.8Z" fill="white"></path>
<path d="M28.9 47.8C35.4722 47.8 40.8 42.4722 40.8 35.9C40.8 29.3278 35.4722 24 28.9 24C22.3278 24 17 29.3278 17 35.9C17 42.4722 22.3278 47.8 28.9 47.8Z" fill="#804998"></path>
</svg>

<svg xmlns="http://www.w3.org/2000/svg" viewBox="0 0 49 48"><path d="M8.45 7.636l-3.1 2.527 22 26.998 3.1-2.526-22-27z" fill="#A0A1A2"/><path d="M39.9 6.9h-33v4h33v-4z" fill="#A0A1A2"/><path d="M6.9 15.8A6.9 6.9 0 1 0 6.9 2a6.9 6.9 0 0 0 0 13.8z" fill="#804998"/><path opacity=".2" d="M6.9 15.8A6.9 6.9 0 1 0 6.9 2a6.9 6.9 0 0 0 0 13.8z" fill="#fff"/><path d="M39.9 17.8a8.9 8.9 0 1 0 0-17.8 8.9 8.9 0 0 0 0 17.8z" fill="#804998"/><path opacity=".1" d="M39.9 17.8a8.9 8.9 0 1 0 0-17.8 8.9 8.9 0 0 0 0 17.8z" fill="#fff"/><path d="M28.9 47.8c6.572 0 11.9-5.328 11.9-11.9S35.472 24 28.9 24 17 29.328 17 35.9s5.328 11.9 11.9 11.9z" fill="#804998"/></svg>
